svgs/duotone/file-csv.svg

<svg xmlns="http://www.w3.org/2000/svg" viewBox="0 0 384 512"><!-- Font Awesome Pro 5.15.3 by @fontawesome - https://fontawesome.com License - https://fontawesome.com/license (Commercial License) --><defs><style>.fa-secondary{opacity:.4}</style></defs><path d="M384 128H272a16 16 0 0 1-16-16V0H24A23.94 23.94 0 0 0 0 23.88V488a23.94 23.94 0 0 0 23.88 24H360a23.94 23.94 0 0 0 24-23.88V128zM128 280a8 8 0 0 1-8 8h-8a16 16 0 0 0-16 16v32a16 16 0 0 0 16 16h8a8 8 0 0 1 8 8v16a8 8 0 0 1-8 8h-8a48 48 0 0 1-48-48v-32a48 48 0 0 1 48-48h8a8 8 0 0 1 8 8zm44.27 104H160a8 8 0 0 1-8-8v-16a8 8 0 0 1 8-8h12.27c5.95 0 10.41-3.5 10.41-6.62a5.28 5.28 0 0 0-2.12-3.84l-21.89-18.77a37.11 37.11 0 0 1-13.33-28.14c0-21.3 19-38.62 42.41-38.62H200a8 8 0 0 1 8 8v16a8 8 0 0 1-8 8h-12.27c-5.95 0-10.41 3.5-10.41 6.62a5.28 5.28 0 0 0 2.12 3.84l21.89 18.77a37.12 37.12 0 0 1 13.33 28.13c.01 21.29-19 38.63-42.39 38.63zM320 284.8c0 35.48-12.88 68.89-36.28 94.09-.27.29-.54.56-.83.83a16 16 0 0 1-22.61-.83c-23.4-25.2-36.28-58.61-36.28-94.09V264a8 8 0 0 1 8-8h16a8 8 0 0 1 8 8v20.8a109 109 0 0 0 16 56.88 109 109 0 0 0 16-56.88V264a8 8 0 0 1 8-8h16a8 8 0 0 1 8 8z" class="fa-secondary"/><path d="M377 105L279.1 7a24 24 0 0 0-17-7H256v112a16 16 0 0 0 16 16h112v-6.1a23.9 23.9 0 0 0-7-16.9zM120 256h-8a48 48 0 0 0-48 48v32a48 48 0 0 0 48 48h8a8 8 0 0 0 8-8v-16a8 8 0 0 0-8-8h-8a16 16 0 0 1-16-16v-32a16 16 0 0 1 16-16h8a8 8 0 0 0 8-8v-16a8 8 0 0 0-8-8zm192 0h-16a8 8 0 0 0-8 8v20.8a109 109 0 0 1-16 56.88 109 109 0 0 1-16-56.88V264a8 8 0 0 0-8-8h-16a8 8 0 0 0-8 8v20.8c0 35.48 12.88 68.89 36.28 94.09a16 16 0 0 0 22.61.83c.29-.27.56-.54.83-.83 23.4-25.2 36.28-58.61 36.28-94.09V264a8 8 0 0 0-8-8zm-110.67 61.24l-21.89-18.77a5.28 5.28 0 0 1-2.12-3.84c0-3.12 4.46-6.62 10.41-6.62H200a8 8 0 0 0 8-8V264a8 8 0 0 0-8-8h-12.25c-23.39 0-42.41 17.32-42.41 38.62a37.11 37.11 0 0 0 13.33 28.14l21.89 18.77a5.28 5.28 0 0 1 2.12 3.84c0 3.12-4.46 6.62-10.41 6.62H160a8 8 0 0 0-8 8v16a8 8 0 0 0 8 8h12.27c23.39 0 42.4-17.33 42.39-38.62a37.12 37.12 0 0 0-13.33-28.13z" class="fa-primary"/></svg>

<svg xmlns="http://www.w3.org/2000/svg" viewBox="0 0 384 512"><!--! Font Awesome Pro 6.0.0-alpha3 by @fontawesome - https://fontawesome.com License - https://fontawesome.com/license (Commercial License) --><defs><style>.fa-secondary{opacity:.4}</style></defs><path class="fa-primary" d="M256 0v128h128L256 0zM120 256H112C85.5 256 64 277.5 64 304v32C64 362.5 85.5 384 112 384h8C124.4 384 128 380.4 128 376v-16C128 355.6 124.4 352 120 352H112C103.1 352 96 344.9 96 336v-32C96 295.1 103.1 288 112 288h8C124.4 288 128 284.4 128 280v-16C128 259.6 124.4 256 120 256zM179.5 298.5C178.1 297.3 177.4 295.9 177.4 294.6C177.4 291.5 181.8 288 187.8 288H200c4.375 0 8-3.625 8-8v-16C208 259.6 204.4 256 200 256H187.8C164.4 256 145.4 273.4 145.4 294.6c0 10.62 4.875 20.88 13.25 28.12L180.5 341.5c1.375 1.25 2.125 2.625 2.125 3.875C182.6 348.5 178.3 352 172.3 352H160c-4.375 0-8 3.625-8 8v16C152 380.4 155.6 384 160 384h12.25c23.38 0 42.38-17.38 42.38-38.63c0-10.62-4.875-20.88-13.25-28.12L179.5 298.5zM312 256h-16C291.6 256 288 259.6 288 264v20.75c0 20.38-5.75 40.25-16 56.88C261.8 325 256 305.1 256 284.8V264C256 259.6 252.4 256 248 256h-16C227.6 256 224 259.6 224 264v20.75c0 35.5 12.88 69 36.25 94.13C263.3 382.1 267.5 384 272 384s8.75-1.875 11.75-5.125C307.1 353.8 320 320.3 320 284.8V264C320 259.6 316.4 256 312 256z"/><path class="fa-secondary" d="M256 0H48C21.49 0 0 21.49 0 48v416C0 490.5 21.49 512 48 512h288c26.51 0 48-21.49 48-48V128h-128V0zM128 280C128 284.4 124.4 288 120 288H112C103.1 288 96 295.1 96 304v32C96 344.9 103.1 352 112 352h8C124.4 352 128 355.6 128 360v16C128 380.4 124.4 384 120 384H112C85.5 384 64 362.5 64 336v-32C64 277.5 85.5 256 112 256h8C124.4 256 128 259.6 128 264V280zM172.3 384H160c-4.375 0-8-3.625-8-8v-16C152 355.6 155.6 352 160 352h12.25c6 0 10.38-3.5 10.38-6.625c0-1.25-.75-2.625-2.125-3.875l-21.88-18.75C150.3 315.5 145.4 305.3 145.4 294.6C145.4 273.4 164.4 256 187.8 256H200c4.375 0 8 3.625 8 8v16C208 284.4 204.4 288 200 288H187.8c-6 0-10.38 3.5-10.38 6.625c0 1.25 .75 2.625 2.125 3.875l21.88 18.75c8.375 7.25 13.25 17.5 13.25 28.12C214.6 366.6 195.6 384 172.3 384zM232 256h16C252.4 256 256 259.6 256 264v20.75c0 20.38 5.75 40.25 16 56.88C282.3 325 288 305.1 288 284.8V264C288 259.6 291.6 256 296 256h16C316.4 256 320 259.6 320 264v20.75c0 35.5-12.88 69-36.25 94.13C280.8 382.1 276.5 384 272 384s-8.75-1.875-11.75-5.125C236.9 353.8 224 320.3 224 284.8V264C224 259.6 227.6 256 232 256z"/></svg>
